svg/elastic.svg

<?xml version="1.0" encoding="UTF-8"?>
<svg xmlns="http://www.w3.org/2000/svg" xmlns:xlink="http://www.w3.org/1999/xlink" width="32" height="32" viewBox="0 0 32 32">
<path fill-rule="nonzero" fill="rgb(100%, 100%, 100%)" fill-opacity="1" d="M 31.996094 16.800781 C 31.996094 14.109375 30.324219 11.785156 27.84375 10.871094 C 27.945312 10.300781 27.996094 9.726562 28 9.148438 C 28 4.15625 23.949219 0.109375 18.960938 0.109375 C 16.058594 0.105469 13.332031 1.507812 11.648438 3.871094 C 10.808594 3.226562 9.78125 2.878906 8.722656 2.878906 C 6.070312 2.882812 3.921875 5.03125 3.917969 7.683594 C 3.917969 8.257812 4.023438 8.832031 4.203125 9.355469 C 1.699219 10.21875 0 12.621094 0 15.285156 C -0.00390625 17.953125 1.667969 20.335938 4.179688 21.238281 C 4.070312 21.808594 4.019531 22.386719 4.023438 22.964844 C 4.023438 27.925781 8.070312 31.972656 13.03125 31.972656 C 15.957031 31.972656 18.648438 30.5625 20.347656 28.210938 C 21.1875 28.871094 22.226562 29.230469 23.296875 29.230469 C 25.949219 29.230469 28.101562 27.078125 28.101562 24.425781 C 28.101562 23.851562 28 23.277344 27.816406 22.753906 C 30.269531 21.867188 31.996094 19.464844 31.996094 16.800781 M 31.996094 16.800781 "/>
<path fill-rule="nonzero" fill="rgb(95.686275%, 74.117647%, 9.803922%)" fill-opacity="1" d="M 12.511719 13.796875 L 19.640625 17.058594 L 26.851562 10.738281 C 27.320312 8.375 26.710938 5.921875 25.183594 4.058594 C 23.65625 2.191406 21.371094 1.105469 18.960938 1.101562 C 16.304688 1.09375 13.820312 2.40625 12.328125 4.601562 L 11.125 10.816406 Z M 12.511719 13.796875 "/>
<path fill-rule="nonzero" fill="rgb(23.529412%, 74.509804%, 69.411765%)" fill-opacity="1" d="M 5.117188 21.34375 C 5.011719 21.878906 4.960938 22.421875 4.960938 22.964844 C 4.960938 27.402344 8.59375 31.035156 13.03125 31.035156 C 15.707031 31.035156 18.207031 29.714844 19.71875 27.507812 L 20.894531 21.292969 L 19.300781 18.261719 L 12.144531 14.996094 Z M 5.117188 21.34375 "/>
<path fill-rule="nonzero" fill="rgb(91.372549%, 27.843137%, 54.901961%)" fill-opacity="1" d="M 5.066406 8.988281 L 9.949219 10.140625 L 11.046875 4.574219 C 10.375 4.058594 9.546875 3.785156 8.699219 3.792969 C 7.4375 3.796875 6.257812 4.414062 5.53125 5.445312 C 4.808594 6.480469 4.636719 7.800781 5.066406 8.988281 M 5.066406 8.988281 "/>
<path fill-rule="nonzero" fill="rgb(17.254902%, 27.058824%, 56.078431%)" fill-opacity="1" d="M 4.648438 10.164062 C 2.457031 10.871094 0.941406 12.984375 0.941406 15.285156 C 0.933594 17.523438 2.316406 19.535156 4.414062 20.324219 L 11.28125 14.109375 L 10.03125 11.417969 Z M 4.648438 10.164062 "/>
<path fill-rule="nonzero" fill="rgb(58.431373%, 77.647059%, 23.921569%)" fill-opacity="1" d="M 20.972656 27.480469 C 21.652344 28.003906 22.460938 28.292969 23.296875 28.292969 C 24.558594 28.289062 25.742188 27.671875 26.464844 26.636719 C 27.1875 25.601562 27.359375 24.28125 26.929688 23.09375 L 22.042969 21.945312 Z M 20.972656 27.480469 "/>
<path fill-rule="nonzero" fill="rgb(9.019608%, 40%, 33.333333%)" fill-opacity="1" d="M 21.964844 20.664062 L 27.347656 21.917969 C 29.539062 21.1875 31.054688 19.097656 31.054688 16.800781 C 31.054688 14.5625 29.671875 12.558594 27.582031 11.757812 L 20.527344 17.921875 Z M 21.964844 20.664062 "/>
</svg>

<svg role="img" viewBox="0 0 32 32" height="32" width="32" xmlns="http://www.w3.org/2000/svg"><path d="M31.996 16.8c0-2.69-1.672-5.015-4.152-5.929.101-.57.152-1.144.156-1.723C28 4.156 23.95.11 18.96.11a8.965 8.965 0 0 0-7.312 3.762 4.802 4.802 0 0 0-2.925-.992 4.811 4.811 0 0 0-4.805 4.805c0 .574.105 1.148.285 1.671C1.7 10.22 0 12.621 0 15.285a6.315 6.315 0 0 0 4.18 5.953c-.11.57-.16 1.149-.157 1.727 0 4.96 4.047 9.008 9.008 9.008 2.926 0 5.617-1.41 7.317-3.762.84.66 1.879 1.02 2.949 1.02a4.806 4.806 0 0 0 4.805-4.805c0-.574-.102-1.149-.286-1.672 2.454-.887 4.18-3.29 4.18-5.953m0 0" fill="rgb(100%, 100%, 100%)"/><path d="m12.512 13.797 7.129 3.262 7.21-6.32a8.063 8.063 0 0 0-7.89-9.637 7.991 7.991 0 0 0-6.633 3.5l-1.203 6.214Zm0 0" fill="rgb(95.686275%, 74.117647%, 9.803922%)"/><path d="M5.117 21.344a8.382 8.382 0 0 0-.156 1.62c0 4.438 3.633 8.071 8.07 8.071a8.104 8.104 0 0 0 6.688-3.527l1.176-6.215-1.594-3.031-7.156-3.266Zm0 0" fill="rgb(23.529412%, 74.509804%, 69.411765%)"/><path d="m5.066 8.988 4.883 1.153 1.098-5.567a3.8 3.8 0 0 0-2.348-.781 3.89 3.89 0 0 0-3.168 1.652 3.88 3.88 0 0 0-.465 3.543m0 0" fill="rgb(91.372549%, 27.843137%, 54.901961%)"/><path d="M4.648 10.164c-2.191.707-3.707 2.82-3.707 5.121a5.369 5.369 0 0 0 3.473 5.04l6.867-6.216-1.25-2.691Zm0 0" fill="rgb(17.254902%, 27.058824%, 56.078431%)"/><path d="M20.973 27.48c.68.524 1.488.813 2.324.813a3.879 3.879 0 0 0 3.168-1.656 3.88 3.88 0 0 0 .465-3.543l-4.887-1.149Zm0 0" fill="rgb(58.431373%, 77.647059%, 23.921569%)"/><path d="m21.965 20.664 5.383 1.254c2.191-.73 3.707-2.82 3.707-5.117a5.402 5.402 0 0 0-3.473-5.043l-7.055 6.164Zm0 0" fill="rgb(9.019608%, 40%, 33.333333%)"/></svg>
